svgs/corridor.svg

<svg width="192" height="192" viewBox="0 0 192 192" fill="none" xmlns="http://www.w3.org/2000/svg">
<path d="M24 84.4653L56.698 51.7673L77.5816 30.8836L82.8026 25.6627M107.535 168L140.233 135.302L161.116 114.418L166.337 109.197M114.128 25.6627L119.349 30.8836L140.233 51.7673L161.116 72.651L166.337 77.8719" stroke="black" stroke-width="12" stroke-linecap="round" stroke-linejoin="round"/>
<path d="M90.1629 56.3477L75.7206 70.7901L64.3483 82.1624M135.652 101.837L121.21 116.279L109.837 127.652M64.3483 104.907L75.7206 116.279L87.0929 127.652" stroke="black" stroke-width="12" stroke-linecap="round" stroke-linejoin="round"/>
</svg>

<svg width="192" height="192" viewBox="0 0 192 192" fill="none" xmlns="http://www.w3.org/2000/svg"><path d="m24 84.465 32.698-32.698 20.884-20.883 5.22-5.221M107.536 168l32.698-32.698 20.883-20.884 5.221-5.221m-52.209-83.534 5.221 5.22 20.884 20.884 20.883 20.884 5.221 5.22M90.163 56.348 75.72 70.79 64.348 82.162m71.304 19.675-14.442 14.442-11.373 11.373m-45.489-22.745 11.373 11.372 11.372 11.373" stroke="#000" stroke-width="12" stroke-linecap="round" stroke-linejoin="round"/></svg>
